icons/mobile/24/svg/arrow-trending-24.svg

<svg width="24" height="24" viewBox="0 0 24 24" fill="none" xmlns="http://www.w3.org/2000/svg">
<path d="M21.2504 6C21.6642 6.00021 22.0004 6.33613 22.0004 6.75V11.291C22.0004 11.9619 21.1863 12.2959 20.7152 11.8174L19.1312 10.2051L15.223 14.1143C14.134 15.2002 12.2416 15.2012 11.1566 14.1143L10.2357 13.1943C9.79772 12.7563 9.08092 12.7573 8.64392 13.1943L4.49353 17.3447C4.15154 17.6867 3.59822 17.6857 3.25623 17.3438C2.91425 17.0018 2.91428 16.4484 3.25623 16.1064L7.40662 11.9551C8.52462 10.8371 10.355 10.8371 11.473 11.9551L12.3939 12.876C12.8189 13.302 13.5607 13.3019 13.9847 12.876L17.9037 8.95605L16.2533 7.27637C15.7873 6.80237 16.1235 6 16.7885 6H21.2504Z" fill="black"/>
</svg>

<!-- This Source Code Form is subject to the terms of the Mozilla Public
   - License, v. 2.0. If a copy of the MPL was not distributed with this
   - file, You can obtain one at http://mozilla.org/MPL/2.0/. -->
<svg xmlns="http://www.w3.org/2000/svg" width="24" height="24" fill="none" viewBox="0 0 24 24">
    <path fill="#000" d="M21.25 6a.75.75 0 0 1 .75.75v4.541a.75.75 0 0 1-1.285.526l-1.584-1.612-3.908 3.91c-1.089 1.085-2.981 1.086-4.066 0l-.921-.92a1.13 1.13 0 0 0-1.592 0l-4.15 4.15a.874.874 0 1 1-1.238-1.239l4.15-4.15a2.884 2.884 0 0 1 4.067 0l.92.92a1.15 1.15 0 0 0 1.592 0l3.919-3.92-1.65-1.68A.75.75 0 0 1 16.787 6z" />
</svg>
